X: 37571
T: Smashing, The
R: reel
M: 4/4
K: Cmajor
e3d|:dcAG EAGE|D2CD EAGE|D2CD EGcd|edce d2ed|
dcAG E2GE|D2CD EGcd|edce aged|1 cAGA cded:|2 cAGA c2cA||
|:G2EG cded|d2cd eage|d2de dcA2|dccA GEDE|
G2EG cded|d2cd eage|agea gedc|1 cAGA c2cA:|2 cAGA c4||

